icons/actions/32/edit-redo.svg

<?xml version="1.0"?>
<!-- Created with Inkscape (http://www.inkscape.org/) -->
<svg xmlns:dc="http://purl.org/dc/elements/1.1/" xmlns:cc="http://creativecommons.org/ns#" xmlns:rdf="http://www.w3.org/1999/02/22-rdf-syntax-ns#" xmlns:svg="http://www.w3.org/2000/svg" xmlns="http://www.w3.org/2000/svg" xmlns:xlink="http://www.w3.org/1999/xlink" xmlns:sodipodi="http://sodipodi.sourceforge.net/DTD/sodipodi-0.dtd" xmlns:inkscape="http://www.inkscape.org/namespaces/inkscape" width="32" height="32" id="svg5453" version="1.1" inkscape:version="0.91 r13725" sodipodi:docname="edit-redo.svg" viewBox="0 0 32 32">
  <defs id="defs5455">
    <style type="text/css" id="current-color-scheme">
      .ColorScheme-Text {
        color:#4d4d4d;
      }
      .ColorScheme-Background {
        color:#eff0f1;
      }
      .ColorScheme-Highlight {
        color:#3daee9;
      }
      .ColorScheme-ViewText {
        color:#31363b;
      }
      .ColorScheme-ViewBackground {
        color:#fcfcfc;
      }
      .ColorScheme-ViewHover {
        color:#93cee9;
      }
      .ColorScheme-ViewFocus{
        color:#3daee9;
      }
      .ColorScheme-ButtonText {
        color:#31363b;
      }
      .ColorScheme-ButtonBackground {
        color:#eff0f1;
      }
      .ColorScheme-ButtonHover {
        color:#93cee9;
      }
      .ColorScheme-ButtonFocus{
        color:#3daee9;
      }
      </style>
    <linearGradient id="linearGradient4324">
      <stop style="stop-color:#f62459;stop-opacity:1" offset="0" id="stop4326"/>
      <stop style="stop-color:#f8567f;stop-opacity:1" offset="1" id="stop4328"/>
    </linearGradient>
    <linearGradient inkscape:collect="always" id="linearGradient4300-8">
      <stop style="stop-color:#f27935;stop-opacity:1" offset="0" id="stop4302-5"/>
      <stop style="stop-color:#f2784b;stop-opacity:1" offset="1" id="stop4304-7"/>
    </linearGradient>
    <linearGradient gradientUnits="userSpaceOnUse" y2="47" x2="47" y1="61" x1="47" id="linearGradient4357" xlink:href="#linearGradient4351" inkscape:collect="always"/>
    <linearGradient id="linearGradient4410" inkscape:collect="always">
      <stop id="stop4412" offset="0" style="stop-color:#383e51;stop-opacity:1"/>
      <stop id="stop4414" offset="1" style="stop-color:#655c6f;stop-opacity:0"/>
    </linearGradient>
    <linearGradient gradientUnits="userSpaceOnUse" y2="17" x2="40" y1="31" x1="54" id="linearGradient4427" xlink:href="#linearGradient4410" inkscape:collect="always" gradientTransform="matrix(1,0,0,-1,-14,78)"/>
    <linearGradient gradientUnits="userSpaceOnUse" y2="3" x2="32" y1="61" x1="32" id="linearGradient4306" xlink:href="#linearGradient4300-8" inkscape:collect="always"/>
    <linearGradient id="linearGradient4351" inkscape:collect="always">
      <stop id="stop4353" offset="0" style="stop-color:#f7ab89;stop-opacity:1"/>
      <stop id="stop4355" offset="1" style="stop-color:#f9bda3;stop-opacity:1"/>
    </linearGradient>
    <linearGradient inkscape:collect="always" xlink:href="#linearGradient4410" id="linearGradient3444" gradientUnits="userSpaceOnUse" gradientTransform="matrix(1,0,0,-1,503.93261,656.69754)" x1="54" y1="31" x2="40" y2="17"/>
    <linearGradient inkscape:collect="always" xlink:href="#linearGradient4351" id="linearGradient3447" gradientUnits="userSpaceOnUse" x1="47" y1="61" x2="47" y2="47" gradientTransform="translate(517.93261,578.69754)"/>
    <linearGradient inkscape:collect="always" xlink:href="#linearGradient4300-8" id="linearGradient3452" gradientUnits="userSpaceOnUse" x1="32" y1="61" x2="32" y2="3" gradientTransform="translate(517.93261,578.69754)"/>
    <clipPath clipPathUnits="userSpaceOnUse" id="clipPath16">
      <path d="m 0,706.465 1490.926,0 L 1490.926,0 0,0 0,706.465 Z" id="path18"/>
    </clipPath>
    <clipPath clipPathUnits="userSpaceOnUse" id="clipPath24">
      <path d="m 22.1953,686.117 1447.7347,0 0,-667.1902 -1447.7347,0 L 22.1953,686.117 Z" id="path26"/>
    </clipPath>
  </defs>
  <sodipodi:namedview id="base" pagecolor="#ffffff" bordercolor="#666666" borderopacity="1.0" inkscape:pageopacity="0" inkscape:pageshadow="2" inkscape:zoom="16" inkscape:cx="17.227198" inkscape:cy="16.09798" inkscape:document-units="px" inkscape:current-layer="layer1" showgrid="true" fit-margin-top="0" fit-margin-left="0" fit-margin-right="0" fit-margin-bottom="0" inkscape:window-width="1920" inkscape:window-height="957" inkscape:window-x="-4" inkscape:window-y="0" inkscape:window-maximized="1" inkscape:showpageshadow="false" borderlayer="true" showguides="true" inkscape:guide-bbox="true" inkscape:object-nodes="true" inkscape:snap-bbox="true" inkscape:snap-global="true">
    <inkscape:grid type="xygrid" id="grid4063"/>
    <sodipodi:guide position="4,24" orientation="28,0" id="guide4280"/>
    <sodipodi:guide position="13,4" orientation="0,28" id="guide4282"/>
    <sodipodi:guide position="28,25" orientation="-28,0" id="guide4284"/>
    <sodipodi:guide position="15,28" orientation="0,-28" id="guide4286"/>
  </sodipodi:namedview>
  <metadata id="metadata5458">
    <rdf:RDF>
      <cc:Work rdf:about="">
        <dc:format>image/svg+xml</dc:format>
        <dc:type rdf:resource="http://purl.org/dc/dcmitype/StillImage"/>
        <dc:title/>
      </cc:Work>
    </rdf:RDF>
  </metadata>
  <g inkscape:label="Capa 1" inkscape:groupmode="layer" id="layer1" transform="translate(-384.57143,-515.798)">
    <circle r="0" cy="-509.56406" cx="389.57144" id="circle16"/>
    <rect style="fill:#49535a;fill-opacity:1;stroke:none" id="rect4035" width="0" height="16.499973" x="337.2366" y="519.69769"/>
    <rect style="fill:#49535a;fill-opacity:1;stroke:none" id="rect4035-5" width="0" height="16.499973" x="364.29782" y="516.62079"/>
    <rect style="fill:#49535a;fill-opacity:1;stroke:none" id="rect4035-8" width="0" height="16.499973" x="337.2366" y="519.69769"/>
    <rect style="fill:#49535a;fill-opacity:1;stroke:none" id="rect4035-59" width="0" height="16.499973" x="337.2366" y="519.69769"/>
    <rect style="fill:#49535a;fill-opacity:1;stroke:none" id="rect4035-6" width="0" height="16.499973" x="326.27441" y="512.4458"/>
    <rect style="fill:#49535a;fill-opacity:1;stroke:none" id="rect4035-5-1" width="0" height="16.499973" x="353.33557" y="509.36862"/>
    <rect style="fill:#49535a;fill-opacity:1;stroke:none" id="rect4035-8-3" width="0" height="16.499973" x="326.27441" y="512.4458"/>
    <rect style="fill:#49535a;fill-opacity:1;stroke:none" id="rect4035-59-4" width="0" height="16.499973" x="326.27441" y="512.4458"/>
    <rect style="fill:#49535a;fill-opacity:1;stroke:none" id="rect4035-1" width="0" height="16.499973" x="335.29715" y="518.77008"/>
    <rect style="fill:#49535a;fill-opacity:1;stroke:none" id="rect4035-5-0" width="0" height="16.499973" x="362.35837" y="515.69318"/>
    <rect style="fill:#49535a;fill-opacity:1;stroke:none" id="rect4035-8-1" width="0" height="16.499973" x="335.29715" y="518.77008"/>
    <rect style="fill:#49535a;fill-opacity:1;stroke:none" id="rect4035-59-1" width="0" height="16.499973" x="335.29715" y="518.77008"/>
    <rect y="519.69769" x="337.2366" height="16.499973" width="0" id="rect4035-7" style="fill:#49535a;fill-opacity:1;stroke:none"/>
    <rect y="516.62079" x="364.29782" height="16.499973" width="0" id="rect4035-5-7" style="fill:#49535a;fill-opacity:1;stroke:none"/>
    <rect y="519.69769" x="337.2366" height="16.499973" width="0" id="rect4035-8-16" style="fill:#49535a;fill-opacity:1;stroke:none"/>
    <rect y="519.69769" x="337.2366" height="16.499973" width="0" id="rect4035-59-18" style="fill:#49535a;fill-opacity:1;stroke:none"/>
    <rect y="512.4458" x="326.27441" height="16.499973" width="0" id="rect4035-6-5" style="fill:#49535a;fill-opacity:1;stroke:none"/>
    <rect y="509.36862" x="353.33557" height="16.499973" width="0" id="rect4035-5-1-8" style="fill:#49535a;fill-opacity:1;stroke:none"/>
    <rect y="512.4458" x="326.27441" height="16.499973" width="0" id="rect4035-8-3-8" style="fill:#49535a;fill-opacity:1;stroke:none"/>
    <rect y="512.4458" x="326.27441" height="16.499973" width="0" id="rect4035-59-4-7" style="fill:#49535a;fill-opacity:1;stroke:none"/>
    <rect y="518.77008" x="335.29715" height="16.499973" width="0" id="rect4035-1-7" style="fill:#49535a;fill-opacity:1;stroke:none"/>
    <rect y="515.69318" x="362.35837" height="16.499973" width="0" id="rect4035-5-0-8" style="fill:#49535a;fill-opacity:1;stroke:none"/>
    <rect y="518.77008" x="335.29715" height="16.499973" width="0" id="rect4035-8-1-0" style="fill:#49535a;fill-opacity:1;stroke:none"/>
    <rect y="518.77008" x="335.29715" height="16.499973" width="0" id="rect4035-59-1-3" style="fill:#49535a;fill-opacity:1;stroke:none"/>
    <rect y="524.76697" x="333.43887" height="16.499973" width="0" id="rect4035-0" style="fill:#49535a;fill-opacity:1;stroke:none"/>
    <rect y="521.69006" x="360.50003" height="16.499973" width="0" id="rect4035-5-5" style="fill:#49535a;fill-opacity:1;stroke:none"/>
    <rect y="524.76697" x="333.43887" height="16.499973" width="0" id="rect4035-8-6" style="fill:#49535a;fill-opacity:1;stroke:none"/>
    <rect y="524.76697" x="333.43887" height="16.499973" width="0" id="rect4035-59-11" style="fill:#49535a;fill-opacity:1;stroke:none"/>
    <rect y="519.3161" x="309.45673" height="16.499973" width="0" id="rect4035-9" style="fill:#49535a;fill-opacity:1;stroke:none"/>
    <rect y="516.2392" x="336.51788" height="16.499973" width="0" id="rect4035-5-8" style="fill:#49535a;fill-opacity:1;stroke:none"/>
    <rect y="519.3161" x="309.45673" height="16.499973" width="0" id="rect4035-8-0" style="fill:#49535a;fill-opacity:1;stroke:none"/>
    <rect y="519.3161" x="309.45673" height="16.499973" width="0" id="rect4035-59-1-8" style="fill:#49535a;fill-opacity:1;stroke:none"/>
    <rect style="fill:#49535a;fill-opacity:1;stroke:none" id="rect4035-3" width="0" height="16.499973" x="337.2366" y="519.69769"/>
    <rect style="fill:#49535a;fill-opacity:1;stroke:none" id="rect4035-5-2" width="0" height="16.499973" x="364.29782" y="516.62079"/>
    <rect style="fill:#49535a;fill-opacity:1;stroke:none" id="rect4035-8-7" width="0" height="16.499973" x="337.2366" y="519.69769"/>
    <rect style="fill:#49535a;fill-opacity:1;stroke:none" id="rect4035-59-43" width="0" height="16.499973" x="337.2366" y="519.69769"/>
    <rect style="fill:#49535a;fill-opacity:1;stroke:none" id="rect4035-6-2" width="0" height="16.499973" x="326.27441" y="512.4458"/>
    <rect style="fill:#49535a;fill-opacity:1;stroke:none" id="rect4035-5-1-6" width="0" height="16.499973" x="353.33557" y="509.36862"/>
    <rect style="fill:#49535a;fill-opacity:1;stroke:none" id="rect4035-8-3-4" width="0" height="16.499973" x="326.27441" y="512.4458"/>
    <rect style="fill:#49535a;fill-opacity:1;stroke:none" id="rect4035-59-4-8" width="0" height="16.499973" x="326.27441" y="512.4458"/>
    <rect style="fill:#49535a;fill-opacity:1;stroke:none" id="rect4035-1-8" width="0" height="16.499973" x="335.29715" y="518.77008"/>
    <rect style="fill:#49535a;fill-opacity:1;stroke:none" id="rect4035-5-0-0" width="0" height="16.499973" x="362.35837" y="515.69318"/>
    <rect style="fill:#49535a;fill-opacity:1;stroke:none" id="rect4035-8-1-3" width="0" height="16.499973" x="335.29715" y="518.77008"/>
    <rect style="fill:#49535a;fill-opacity:1;stroke:none" id="rect4035-59-1-1" width="0" height="16.499973" x="335.29715" y="518.77008"/>
    <rect style="fill:currentColor;fill-opacity:1;stroke:none" id="rect4035-89" width="0" height="10.999983" x="371.85846" y="539.19354" class="ColorScheme-Text"/>
    <rect style="fill:currentColor;fill-opacity:1;stroke:none" id="rect4035-5-9" width="0" height="10.999983" x="389.89926" y="537.14227" class="ColorScheme-Text"/>
    <rect style="fill:currentColor;fill-opacity:1;stroke:none" id="rect4035-8-8" width="0" height="10.999983" x="371.85846" y="539.19354" class="ColorScheme-Text"/>
    <rect style="fill:currentColor;fill-opacity:1;stroke:none" id="rect4035-59-7" width="0" height="10.999983" x="371.85846" y="539.19354" class="ColorScheme-Text"/>
    <rect style="fill:currentColor;fill-opacity:1;stroke:none" id="rect4035-6-6" width="0" height="10.999983" x="364.55032" y="534.35895" class="ColorScheme-Text"/>
    <rect style="fill:currentColor;fill-opacity:1;stroke:none" id="rect4035-5-1-0" width="0" height="10.999983" x="382.59109" y="532.30756" class="ColorScheme-Text"/>
    <rect style="fill:currentColor;fill-opacity:1;stroke:none" id="rect4035-8-3-7" width="0" height="10.999983" x="364.55032" y="534.35895" class="ColorScheme-Text"/>
    <rect style="fill:currentColor;fill-opacity:1;stroke:none" id="rect4035-59-4-84" width="0" height="10.999983" x="364.55032" y="534.35895" class="ColorScheme-Text"/>
    <rect style="fill:currentColor;fill-opacity:1;stroke:none" id="rect4035-1-3" width="0" height="10.999983" x="370.56549" y="538.57513" class="ColorScheme-Text"/>
    <rect style="fill:currentColor;fill-opacity:1;stroke:none" id="rect4035-5-0-1" width="0" height="10.999983" x="388.60629" y="536.52386" class="ColorScheme-Text"/>
    <rect style="fill:currentColor;fill-opacity:1;stroke:none" id="rect4035-8-1-01" width="0" height="10.999983" x="370.56549" y="538.57513" class="ColorScheme-Text"/>
    <rect style="fill:currentColor;fill-opacity:1;stroke:none" id="rect4035-59-1-7" width="0" height="10.999983" x="370.56549" y="538.57513" class="ColorScheme-Text"/>
    <rect style="fill:#49535a;fill-opacity:1;stroke:none" id="rect4035-2" width="0" height="16.499973" x="337.27621" y="519.82233"/>
    <rect style="fill:#49535a;fill-opacity:1;stroke:none" id="rect4035-5-6" width="0" height="16.499973" x="364.33743" y="516.74542"/>
    <rect style="fill:#49535a;fill-opacity:1;stroke:none" id="rect4035-8-9" width="0" height="16.499973" x="337.27621" y="519.82233"/>
    <rect style="fill:#49535a;fill-opacity:1;stroke:none" id="rect4035-59-6" width="0" height="16.499973" x="337.27621" y="519.82233"/>
    <rect style="fill:#49535a;fill-opacity:1;stroke:none" id="rect4035-6-7" width="0" height="16.499973" x="326.31403" y="512.57043"/>
    <rect style="fill:#49535a;fill-opacity:1;stroke:none" id="rect4035-5-1-5" width="0" height="16.499973" x="353.37518" y="509.49332"/>
    <rect style="fill:#49535a;fill-opacity:1;stroke:none" id="rect4035-8-3-1" width="0" height="16.499973" x="326.31403" y="512.57043"/>
    <rect style="fill:#49535a;fill-opacity:1;stroke:none" id="rect4035-59-4-844" width="0" height="16.499973" x="326.31403" y="512.57043"/>
    <rect style="fill:#49535a;fill-opacity:1;stroke:none" id="rect4035-1-9" width="0" height="16.499973" x="335.33676" y="518.89471"/>
    <rect style="fill:#49535a;fill-opacity:1;stroke:none" id="rect4035-5-0-15" width="0" height="16.499973" x="362.39798" y="515.81781"/>
    <rect style="fill:#49535a;fill-opacity:1;stroke:none" id="rect4035-8-1-5" width="0" height="16.499973" x="335.33676" y="518.89471"/>
    <rect style="fill:#49535a;fill-opacity:1;stroke:none" id="rect4035-59-1-18" width="0" height="16.499973" x="335.33676" y="518.89471"/>
    <rect y="519.82233" x="337.27621" height="16.499973" width="0" id="rect4035-7-5" style="fill:#49535a;fill-opacity:1;stroke:none"/>
    <rect y="516.74542" x="364.33743" height="16.499973" width="0" id="rect4035-5-7-6" style="fill:#49535a;fill-opacity:1;stroke:none"/>
    <rect y="519.82233" x="337.27621" height="16.499973" width="0" id="rect4035-8-16-3" style="fill:#49535a;fill-opacity:1;stroke:none"/>
    <rect y="519.82233" x="337.27621" height="16.499973" width="0" id="rect4035-59-18-6" style="fill:#49535a;fill-opacity:1;stroke:none"/>
    <rect y="512.57043" x="326.31403" height="16.499973" width="0" id="rect4035-6-5-6" style="fill:#49535a;fill-opacity:1;stroke:none"/>
    <rect y="509.49332" x="353.37518" height="16.499973" width="0" id="rect4035-5-1-8-5" style="fill:#49535a;fill-opacity:1;stroke:none"/>
    <rect y="512.57043" x="326.31403" height="16.499973" width="0" id="rect4035-8-3-8-1" style="fill:#49535a;fill-opacity:1;stroke:none"/>
    <rect y="512.57043" x="326.31403" height="16.499973" width="0" id="rect4035-59-4-7-8" style="fill:#49535a;fill-opacity:1;stroke:none"/>
    <rect y="518.89471" x="335.33676" height="16.499973" width="0" id="rect4035-1-7-6" style="fill:#49535a;fill-opacity:1;stroke:none"/>
    <rect y="515.81781" x="362.39798" height="16.499973" width="0" id="rect4035-5-0-8-0" style="fill:#49535a;fill-opacity:1;stroke:none"/>
    <rect y="518.89471" x="335.33676" height="16.499973" width="0" id="rect4035-8-1-0-4" style="fill:#49535a;fill-opacity:1;stroke:none"/>
    <rect y="518.89471" x="335.33676" height="16.499973" width="0" id="rect4035-59-1-3-1" style="fill:#49535a;fill-opacity:1;stroke:none"/>
    <rect y="524.8916" x="333.47849" height="16.499973" width="0" id="rect4035-0-8" style="fill:#49535a;fill-opacity:1;stroke:none"/>
    <rect y="521.8147" x="360.53964" height="16.499973" width="0" id="rect4035-5-5-6" style="fill:#49535a;fill-opacity:1;stroke:none"/>
    <rect y="524.8916" x="333.47849" height="16.499973" width="0" id="rect4035-8-6-4" style="fill:#49535a;fill-opacity:1;stroke:none"/>
    <rect y="524.8916" x="333.47849" height="16.499973" width="0" id="rect4035-59-11-1" style="fill:#49535a;fill-opacity:1;stroke:none"/>
    <rect y="519.44073" x="309.49634" height="16.499973" width="0" id="rect4035-9-4" style="fill:#49535a;fill-opacity:1;stroke:none"/>
    <rect y="516.36383" x="336.5575" height="16.499973" width="0" id="rect4035-5-8-6" style="fill:#49535a;fill-opacity:1;stroke:none"/>
    <rect y="519.44073" x="309.49634" height="16.499973" width="0" id="rect4035-8-0-9" style="fill:#49535a;fill-opacity:1;stroke:none"/>
    <rect y="519.44073" x="309.49634" height="16.499973" width="0" id="rect4035-59-1-8-2" style="fill:#49535a;fill-opacity:1;stroke:none"/>
    <rect style="fill:#49535a;fill-opacity:1;stroke:none" id="rect4035-3-1" width="0" height="16.499973" x="337.27621" y="519.82233"/>
    <rect style="fill:#49535a;fill-opacity:1;stroke:none" id="rect4035-5-2-0" width="0" height="16.499973" x="364.33743" y="516.74542"/>
    <rect style="fill:#49535a;fill-opacity:1;stroke:none" id="rect4035-8-7-2" width="0" height="16.499973" x="337.27621" y="519.82233"/>
    <rect style="fill:#49535a;fill-opacity:1;stroke:none" id="rect4035-59-43-5" width="0" height="16.499973" x="337.27621" y="519.82233"/>
    <rect style="fill:#49535a;fill-opacity:1;stroke:none" id="rect4035-6-2-5" width="0" height="16.499973" x="326.31403" y="512.57043"/>
    <rect style="fill:#49535a;fill-opacity:1;stroke:none" id="rect4035-5-1-6-4" width="0" height="16.499973" x="353.37518" y="509.49332"/>
    <rect style="fill:#49535a;fill-opacity:1;stroke:none" id="rect4035-8-3-4-6" width="0" height="16.499973" x="326.31403" y="512.57043"/>
    <rect style="fill:#49535a;fill-opacity:1;stroke:none" id="rect4035-59-4-8-2" width="0" height="16.499973" x="326.31403" y="512.57043"/>
    <rect style="fill:#49535a;fill-opacity:1;stroke:none" id="rect4035-1-8-9" width="0" height="16.499973" x="335.33676" y="518.89471"/>
    <rect style="fill:#49535a;fill-opacity:1;stroke:none" id="rect4035-5-0-0-9" width="0" height="16.499973" x="362.39798" y="515.81781"/>
    <rect style="fill:#49535a;fill-opacity:1;stroke:none" id="rect4035-8-1-3-0" width="0" height="16.499973" x="335.33676" y="518.89471"/>
    <rect style="fill:#49535a;fill-opacity:1;stroke:none" id="rect4035-59-1-1-4" width="0" height="16.499973" x="335.33676" y="518.89471"/>
    <rect style="fill:currentColor;fill-opacity:1;stroke:none" id="rect4035-89-8" width="0" height="10.999983" x="371.89807" y="539.31818" class="ColorScheme-Text"/>
    <rect style="fill:currentColor;fill-opacity:1;stroke:none" id="rect4035-5-9-5" width="0" height="10.999983" x="389.93887" y="537.26691" class="ColorScheme-Text"/>
    <rect style="fill:currentColor;fill-opacity:1;stroke:none" id="rect4035-8-8-2" width="0" height="10.999983" x="371.89807" y="539.31818" class="ColorScheme-Text"/>
    <rect style="fill:currentColor;fill-opacity:1;stroke:none" id="rect4035-59-7-6" width="0" height="10.999983" x="371.89807" y="539.31818" class="ColorScheme-Text"/>
    <rect style="fill:currentColor;fill-opacity:1;stroke:none" id="rect4035-6-6-0" width="0" height="10.999983" x="364.58994" y="534.48358" class="ColorScheme-Text"/>
    <rect style="fill:currentColor;fill-opacity:1;stroke:none" id="rect4035-5-1-0-3" width="0" height="10.999983" x="382.63071" y="532.43219" class="ColorScheme-Text"/>
    <rect style="fill:currentColor;fill-opacity:1;stroke:none" id="rect4035-8-3-7-4" width="0" height="10.999983" x="364.58994" y="534.48358" class="ColorScheme-Text"/>
    <rect style="fill:currentColor;fill-opacity:1;stroke:none" id="rect4035-59-4-84-8" width="0" height="10.999983" x="364.58994" y="534.48358" class="ColorScheme-Text"/>
    <rect style="fill:currentColor;fill-opacity:1;stroke:none" id="rect4035-1-3-3" width="0" height="10.999983" x="370.6051" y="538.69977" class="ColorScheme-Text"/>
    <rect style="fill:currentColor;fill-opacity:1;stroke:none" id="rect4035-5-0-1-9" width="0" height="10.999983" x="388.6459" y="536.6485" class="ColorScheme-Text"/>
    <rect style="fill:currentColor;fill-opacity:1;stroke:none" id="rect4035-8-1-01-9" width="0" height="10.999983" x="370.6051" y="538.69977" class="ColorScheme-Text"/>
    <rect style="fill:currentColor;fill-opacity:1;stroke:none" id="rect4035-59-1-7-4" width="0" height="10.999983" x="370.6051" y="538.69977" class="ColorScheme-Text"/>
    <path style="font-style:normal;font-variant:normal;font-weight:normal;font-stretch:normal;font-size:medium;line-height:normal;font-family:sans-serif;text-indent:0;text-align:start;text-decoration:none;text-decoration-line:none;text-decoration-style:solid;text-decoration-color:#000000;letter-spacing:normal;word-spacing:normal;text-transform:none;direction:ltr;block-progression:tb;writing-mode:lr-tb;baseline-shift:baseline;text-anchor:start;white-space:normal;clip-rule:nonzero;display:inline;overflow:visible;visibility:visible;opacity:1;isolation:auto;mix-blend-mode:normal;color-interpolation:sRGB;color-interpolation-filters:linearRGB;solid-color:#000000;solid-opacity:1;fill:currentColor;fill-opacity:1;fill-rule:evenodd;stroke:none;stroke-width:2;stroke-linecap:butt;stroke-linejoin:miter;stroke-miterlimit:4;stroke-dasharray:none;stroke-dashoffset:0;stroke-opacity:1;color-rendering:auto;image-rendering:auto;shape-rendering:auto;text-rendering:auto;enable-background:accumulate" d="M 21 3.5 L 20.292969 4.2070312 L 24.085938 8 L 17 8 L 16 8 A 10 10 0 0 0 6 18 A 10 10 0 0 0 16 28 L 17 28 L 17 27 L 16 27 A 9 9 0 0 1 7 18 A 9 9 0 0 1 16 9 L 17 9 L 24.085938 9 L 20.292969 12.792969 L 21 13.5 L 25 9.5 L 26 8.5 L 25 7.5 L 21 3.5 z " transform="translate(384.57143,515.798)" id="path4453" class="ColorScheme-Text"/>
  </g>
</svg>

<svg xmlns="http://www.w3.org/2000/svg" viewBox="0 0 32 32">
  <defs id="defs3051">
    <style type="text/css" id="current-color-scheme">
      .ColorScheme-Text {
        color:#4d4d4d;
      }
      </style>
  </defs>
 <path style="fill:currentColor;fill-opacity:1;stroke:none" 
     d="m21 3.5l-.707.707 3.793 3.793h-8.09a10 10 0 0 0 -10 10 10 10 0 0 0 10 10h1v-1h-1a9 9 0 0 1 -9 -9 9 9 0 0 1 9 -9h8.09l-3.793 3.793.707.707 5-5-1-1z"
     class="ColorScheme-Text"
     />
</svg>
